communes/6644.svg

<?xml version="1.0" encoding="UTF-8" standalone="no"?>
<svg
   xmlns:i="http://ns.adobe.com/AdobeIllustrator/10.0/"
   xmlns:dc="http://purl.org/dc/elements/1.1/"
   xmlns:cc="http://web.resource.org/cc/"
   xmlns:rdf="http://www.w3.org/1999/02/22-rdf-syntax-ns#"
   xmlns:svg="http://www.w3.org/2000/svg"
   xmlns="http://www.w3.org/2000/svg"
   xmlns:xlink="http://www.w3.org/1999/xlink"
   xmlns:sodipodi="http://sodipodi.sourceforge.net/DTD/sodipodi-0.dtd"
   xmlns:inkscape="http://www.inkscape.org/namespaces/inkscape"
   height="763"
   width="603"
   version="1.0"
   id="svg20"
   sodipodi:version="0.32"
   inkscape:version="0.44"
   sodipodi:docname="Versoix-coat_of_arms.svg"
   sodipodi:docbase="C:\Documents and Settings\Steve\Bureau\Blason Villages Suisse pour Wikipédia (par Delta-9)\GE">
  <metadata
     id="metadata31">
    <rdf:RDF>
      <cc:Work
         rdf:about="">
        <dc:format>image/svg+xml</dc:format>
        <dc:type
           rdf:resource="http://purl.org/dc/dcmitype/StillImage" />
        <dc:date>07-AUG-2006</dc:date>
        <dc:creator>
          <cc:Agent>
            <dc:title>Jérôme BLUM (wagner51)</dc:title>
          </cc:Agent>
        </dc:creator>
        <cc:license
           rdf:resource="http://creativecommons.org/licenses/GPL/2.0/" />
        <dc:coverage />
        <dc:description>Gabarit pour le Projet:Blasons de WIkipédia</dc:description>
        <dc:subject>
          <rdf:Bag>
            <rdf:li>blason suisse modèle gabarit projet blasons</rdf:li>
          </rdf:Bag>
        </dc:subject>
        <dc:language>fr</dc:language>
        <dc:title>Gabrit d'un blason suisse</dc:title>
      </cc:Work>
      <cc:License
         rdf:about="http://creativecommons.org/licenses/GPL/2.0/">
        <cc:permits
           rdf:resource="http://web.resource.org/cc/Reproduction" />
        <cc:permits
           rdf:resource="http://web.resource.org/cc/Distribution" />
        <cc:requires
           rdf:resource="http://web.resource.org/cc/Notice" />
        <cc:permits
           rdf:resource="http://web.resource.org/cc/DerivativeWorks" />
        <cc:requires
           rdf:resource="http://web.resource.org/cc/ShareAlike" />
        <cc:requires
           rdf:resource="http://web.resource.org/cc/SourceCode" />
      </cc:License>
    </rdf:RDF>
  </metadata>
  <defs
     id="defs29"><linearGradient
   id="linearGradient2893">
  <stop
     style="stop-color:#ffffff;stop-opacity:0.3137255;"
     offset="0"
     id="stop2895" />
  <stop
     id="stop2897"
     offset="0.19"
     style="stop-color:#ffffff;stop-opacity:0.25098041;" />
  <stop
     style="stop-color:#6b6b6b;stop-opacity:0.1254902;"
     offset="0.60000002"
     id="stop2901" />
  <stop
     style="stop-color:#000000;stop-opacity:0.1254902;"
     offset="1"
     id="stop2899" />
</linearGradient>
<linearGradient
   id="linearGradient2955">
  <stop
     style="stop-color:white;stop-opacity:0;"
     offset="0"
     id="stop2965" />
  <stop
     style="stop-color:black;stop-opacity:0.64583331;"
     offset="1"
     id="stop2959" />
</linearGradient>
<radialGradient
   inkscape:collect="always"
   xlink:href="#linearGradient2893"
   id="radialGradient3236"
   gradientUnits="userSpaceOnUse"
   gradientTransform="matrix(1.215027,1.531577e-24,1.464684e-23,1.266667,-839.1924,-490.4894)"
   cx="858.04236"
   cy="579.93323"
   fx="858.04236"
   fy="579.93323"
   r="300" />
<foreignObject
   requiredExtensions="http://ns.adobe.com/AdobeIllustrator/10.0/"
   x="0"
   y="0"
   width="1"
   height="1"
   id="foreignObject1958">
  <i:pgfRef
     xlink:href="#adobe_illustrator_pgf" />
</foreignObject>

			<foreignObject
   requiredExtensions="http://ns.adobe.com/AdobeIllustrator/10.0/"
   x="0"
   y="0"
   width="1"
   height="1"
   id="foreignObject1955">
				<i:pgfRef
   xlink:href="#adobe_illustrator_pgf">
				</i:pgfRef>

			</foreignObject>

			
		
				
			
					
				</defs>
  <sodipodi:namedview
     inkscape:window-height="973"
     inkscape:window-width="1280"
     inkscape:pageshadow="2"
     inkscape:pageopacity="0.0"
     guidetolerance="10.0"
     gridtolerance="10.0"
     objecttolerance="10.0"
     borderopacity="1.0"
     bordercolor="#666666"
     pagecolor="#ffffff"
     id="base"
     inkscape:zoom="0.47610294"
     inkscape:cx="126.14656"
     inkscape:cy="267.61796"
     inkscape:window-x="-4"
     inkscape:window-y="-4"
     inkscape:current-layer="layer2"
     showgrid="false"
     showguides="true"
     inkscape:guide-bbox="true" />
  <desc
     id="desc22">Coat of Arms of Canton of Freiburg (Fribourg)</desc>
  <g
     inkscape:groupmode="layer"
     id="layer1"
     inkscape:label="Fond écu"
     style="opacity:1"
     sodipodi:insensitive="true">
    <path
       id="path1899"
       d="M 1.5,1.49998 L 1.5,460.3679 C 1.5,626.6785 135.81456,761.5 301.49999,761.5 C 467.18543,761.5 601.5,626.6785 601.5,460.3679 L 601.5,1.49998 L 1.5,1.49998 z "
       style="fill:#2b5df2;fill-opacity:1" />
  </g>
  <g
     inkscape:groupmode="layer"
     id="layer2"
     inkscape:label="Meubles"
     style="opacity:1;display:inline"
     sodipodi:insensitive="true">
    <path
       style="fill:white;stroke:black;stroke-width:2.75;stroke-miterlimit:4;stroke-dasharray:none;stroke-opacity:1"
       d="M 35.03125,48.03125 C 20.076855,48.03125 10.016977,50.899982 1.5,54.65625 L 1.5,92.375 C 10.016976,88.618735 20.076764,85.75 35.03125,85.75 C 78.490282,85.750001 80.529134,109.9375 123.84375,109.9375 C 167.15864,109.9375 169.22848,85.75 212.6875,85.75 C 256.14652,85.750001 258.18539,109.9375 301.5,109.9375 C 344.81492,109.9375 346.8535,85.75 390.3125,85.75 C 433.77155,85.750001 435.84136,109.9375 479.15625,109.9375 C 522.4709,109.9375 524.51003,85.75 567.96875,85.75 C 582.92323,85.75 592.98302,88.618735 601.5,92.375 L 601.5,54.65625 C 592.98303,50.899982 582.92326,48.03125 567.96875,48.03125 C 524.51,48.03125 522.47088,72.21875 479.15625,72.21875 C 435.84134,72.218752 433.77152,48.03125 390.3125,48.03125 C 346.85348,48.03125 344.81491,72.21875 301.5,72.21875 C 258.18538,72.218752 256.14625,48.03125 212.6875,48.03125 C 169.22874,48.03125 167.15864,72.21875 123.84375,72.21875 C 80.529133,72.218752 78.49,48.03125 35.03125,48.03125 z M 35.03125,122.03125 C 20.076859,122.03125 10.01702,124.86874 1.5,128.625 L 1.5,166.34375 C 10.016917,162.58754 20.076923,159.75 35.03125,159.75 C 78.490282,159.75 80.529134,183.9375 123.84375,183.9375 C 167.15864,183.9375 169.22848,159.75 212.6875,159.75 C 256.14652,159.75 258.18539,183.9375 301.5,183.9375 C 344.81492,183.9375 346.8535,159.75 390.3125,159.75 C 433.77155,159.75 435.84136,183.9375 479.15625,183.9375 C 522.4709,183.9375 524.51003,159.75 567.96875,159.75 C 582.92307,159.75 592.98308,162.58754 601.5,166.34375 L 601.5,128.625 C 592.98302,124.86874 582.92323,122.03125 567.96875,122.03125 C 524.51002,122.03125 522.47088,146.1875 479.15625,146.1875 C 435.84134,146.1875 433.77152,122.03125 390.3125,122.03125 C 346.85348,122.03125 344.81491,146.1875 301.5,146.1875 C 258.18538,146.1875 256.14625,122.03125 212.6875,122.03125 C 169.22874,122.03125 167.15865,146.1875 123.84375,146.1875 C 80.529137,146.1875 78.490011,122.03125 35.03125,122.03125 z M 35.03125,196 C 20.077019,196 10.016962,198.83754 1.5,202.59375 L 1.5,240.34375 C 10.016976,236.58748 20.076764,233.71875 35.03125,233.71875 C 78.490282,233.71875 80.529134,257.90625 123.84375,257.90625 C 167.15864,257.90625 169.22848,233.71875 212.6875,233.71875 C 256.14652,233.71875 258.18539,257.90625 301.5,257.90625 C 344.81492,257.90625 346.8535,233.71875 390.3125,233.71875 C 433.77155,233.71875 435.84136,257.90625 479.15625,257.90625 C 522.4709,257.90625 524.51003,233.71875 567.96875,233.71875 C 582.92323,233.71875 592.98302,236.58748 601.5,240.34375 L 601.5,202.59375 C 592.98308,198.83754 582.92307,196 567.96875,196 C 524.51002,196.00001 522.47088,220.1875 479.15625,220.1875 C 435.84134,220.1875 433.77152,196 390.3125,196 C 346.85348,196.00001 344.81491,220.1875 301.5,220.1875 C 258.18538,220.1875 256.14625,196 212.6875,196 C 169.22874,196.00001 167.15865,220.1875 123.84375,220.1875 C 80.529137,220.1875 78.490011,196 35.03125,196 z "
       id="path1960" />
    <path
       style="opacity:1;fill:white;fill-opacity:1;stroke:black;stroke-width:2.5;stroke-linecap:round;stroke-linejoin:round;stroke-miterlimit:4;stroke-dasharray:none;stroke-opacity:1"
       d="M 244.375,1.5 L 244.375,300.5625 L 1.5,300.5625 L 1.5,416.5625 L 244.375,416.5625 L 244.375,756 C 262.8715,759.58003 281.96226,761.5 301.5,761.5 C 321.66126,761.5 341.35949,759.49392 360.40625,755.6875 L 360.40625,416.5625 L 601.5,416.5625 L 601.5,300.5625 L 360.40625,300.5625 L 360.40625,1.5 L 244.375,1.5 z "
       id="path3774" />
  </g>
  <g
     inkscape:groupmode="layer"
     id="layer3"
     inkscape:label="Reflet final"
     style="display:inline"
     sodipodi:insensitive="true">
    <path
       style="fill:url(#radialGradient3236);fill-opacity:1"
       d="M 1.5,1.5 L 1.5,460.3679 C 1.5,626.67854 135.81454,761.5 301.49993,761.5 C 467.1854,761.5 601.5,626.67854 601.5,460.3679 L 601.5,1.5 L 1.5,1.5 z "
       id="path2346" />
  </g>
  <g
     inkscape:groupmode="layer"
     id="layer4"
     inkscape:label="Contour final"
     style="display:inline"
     sodipodi:insensitive="true">
    <path
       style="fill:none;fill-opacity:1;stroke:#000000;stroke-width:3;stroke-miterlimit:4;stroke-dasharray:none;stroke-opacity:1"
       d="M 1.5,1.5 L 1.5,460.36794 C 1.5,626.67854 135.81454,761.5 301.49993,761.5 C 467.1854,761.5 601.5,626.67854 601.5,460.36794 L 601.5,1.5 L 1.5,1.5 z "
       id="path3239" />
  </g>
</svg>

<?xml version="1.0" encoding="UTF-8"?>
<svg version="1.0" viewBox="0 0 603 763" xmlns="http://www.w3.org/2000/svg" xmlns:cc="http://web.resource.org/cc/" xmlns:dc="http://purl.org/dc/elements/1.1/" xmlns:rdf="http://www.w3.org/1999/02/22-rdf-syntax-ns#" xmlns:xlink="http://www.w3.org/1999/xlink">
<metadata>
<rdf:RDF>
<cc:Work rdf:about="">
<dc:format>image/svg+xml</dc:format>
<dc:type rdf:resource="http://purl.org/dc/dcmitype/StillImage"/>
<dc:date>07-AUG-2006</dc:date>
<dc:creator>
<cc:Agent>
<dc:title>Jérôme BLUM (wagner51)</dc:title>
</cc:Agent>
</dc:creator>
<cc:license rdf:resource="http://creativecommons.org/licenses/GPL/2.0/"/>
<dc:coverage/>
<dc:description>Gabarit pour le Projet:Blasons de WIkipédia</dc:description>
<dc:subject>
<rdf:Bag>
<rdf:li>blason suisse modèle gabarit projet blasons</rdf:li>
</rdf:Bag>
</dc:subject>
<dc:language>fr</dc:language>
<dc:title>Gabrit d'un blason suisse</dc:title>
</cc:Work>
<cc:License rdf:about="http://creativecommons.org/licenses/GPL/2.0/">
<cc:permits rdf:resource="http://web.resource.org/cc/Reproduction"/>
<cc:permits rdf:resource="http://web.resource.org/cc/Distribution"/>
<cc:requires rdf:resource="http://web.resource.org/cc/Notice"/>
<cc:permits rdf:resource="http://web.resource.org/cc/DerivativeWorks"/>
<cc:requires rdf:resource="http://web.resource.org/cc/ShareAlike"/>
<cc:requires rdf:resource="http://web.resource.org/cc/SourceCode"/>
</cc:License>
</rdf:RDF>
</metadata>
<defs>
<radialGradient id="a" cx="858.04" cy="579.93" r="300" gradientTransform="matrix(1.215 1.5316e-24 1.4647e-23 1.2667 -839.19 -490.49)" gradientUnits="userSpaceOnUse">
<stop stop-color="#fff" stop-opacity=".31373" offset="0"/>
<stop stop-color="#fff" stop-opacity=".25098" offset=".19"/>
<stop stop-color="#6b6b6b" stop-opacity=".12549" offset=".6"/>
<stop stop-opacity=".12549" offset="1"/>
</radialGradient>
</defs>
<desc>Coat of Arms of Canton of Freiburg (Fribourg)</desc>
<g>
<path d="m1.5 1.5v458.87c0 166.31 134.31 301.13 300 301.13 165.69 0 300-134.82 300-301.13v-458.87h-600z" fill="#2b5df2"/>
</g>
<g fill="#fff" stroke="#000">
<path d="m35.031 48.031c-14.954 0-25.014 2.8687-33.531 6.625v37.719c8.517-3.7563 18.577-6.625 33.531-6.625 43.459 1e-6 45.498 24.188 88.812 24.188 43.315 0 45.385-24.188 88.844-24.188 43.459 1e-6 45.498 24.188 88.812 24.188 43.315 0 45.354-24.188 88.812-24.188 43.459 1e-6 45.529 24.188 88.844 24.188 43.315 0 45.354-24.188 88.812-24.188 14.954 0 25.014 2.8687 33.531 6.625v-37.719c-8.517-3.7563-18.577-6.625-33.531-6.625-43.459 0-45.498 24.188-88.812 24.188-43.315 2e-6 -45.385-24.188-88.844-24.188s-45.498 24.188-88.812 24.188c-43.315 2e-6 -45.354-24.188-88.812-24.188-43.459 0-45.529 24.188-88.844 24.188-43.315 2e-6 -45.354-24.188-88.812-24.188zm0 74c-14.954 0-25.014 2.8375-33.531 6.5938v37.719c8.5169-3.7562 18.577-6.5938 33.531-6.5938 43.459 0 45.498 24.188 88.812 24.188 43.315 0 45.385-24.188 88.844-24.188s45.498 24.188 88.812 24.188c43.315 0 45.354-24.188 88.812-24.188 43.459 0 45.529 24.188 88.844 24.188 43.315 0 45.354-24.188 88.812-24.188 14.954 0 25.014 2.8375 33.531 6.5938v-37.719c-8.517-3.7563-18.577-6.5938-33.531-6.5938-43.459 0-45.498 24.156-88.812 24.156-43.315 0-45.385-24.156-88.844-24.156s-45.498 24.156-88.812 24.156c-43.315 0-45.354-24.156-88.812-24.156-43.459 0-45.529 24.156-88.844 24.156-43.315 0-45.354-24.156-88.812-24.156zm0 73.969c-14.954 0-25.014 2.8375-33.531 6.5938v37.75c8.517-3.7563 18.577-6.625 33.531-6.625 43.459 0 45.498 24.188 88.812 24.188 43.315 0 45.385-24.188 88.844-24.188s45.498 24.188 88.812 24.188c43.315 0 45.354-24.188 88.812-24.188 43.459 0 45.529 24.188 88.844 24.188 43.315 0 45.354-24.188 88.812-24.188 14.954 0 25.014 2.8687 33.531 6.625v-37.75c-8.5169-3.7562-18.577-6.5938-33.531-6.5938-43.459 1e-5 -45.498 24.188-88.812 24.188-43.315 0-45.385-24.188-88.844-24.188-43.459 1e-5 -45.498 24.188-88.812 24.188-43.315 0-45.354-24.188-88.812-24.188-43.459 1e-5 -45.529 24.188-88.844 24.188-43.315 0-45.354-24.188-88.812-24.188z" stroke-width="2.75"/>
<path d="m244.38 1.5v299.06h-242.88v116h242.88v339.44c18.496 3.58 37.587 5.5 57.125 5.5 20.161 0 39.859-2.0061 58.906-5.8125v-339.12h241.09v-116h-241.09v-299.06h-116.03z" stroke-linecap="round" stroke-linejoin="round" stroke-width="2.5"/>
</g>
<g>
<path d="m1.5 1.5v458.87c0 166.31 134.31 301.13 300 301.13 165.69 0 300-134.82 300-301.13v-458.87h-600z" fill="url(#a)"/>
<path d="m1.5 1.5v458.87c0 166.31 134.31 301.13 300 301.13 165.69 0 300-134.82 300-301.13v-458.87h-600z" fill="none" stroke="#000" stroke-width="3"/>
</g>
</svg>
